icons/production/skype.svg

<?xml version="1.0" encoding="UTF-8" standalone="no"?>
<svg width="24px" height="24px" viewBox="0 0 24 24" version="1.1" xmlns="http://www.w3.org/2000/svg">
<!--Generator: Sketch 3.8.3 (29802) - http://www.bohemiancoding.com/sketch-->
    <title>
        skype
    </title>
    <desc>
        Created with Sketch.
    </desc>
    <g id="Page-1" stroke="none" stroke-width="1" fill="none" fill-rule="evenodd">
        <path d="M18.0104,5.9896 C20.0657,8.04484 20.8484,10.8907 20.3586,13.5482 C20.767,14.2726 21,15.1091 21,16 C21,18.7614 18.7614,21 16,21 C15.1091,21 14.2726,20.767 13.5482,20.3586 C10.8907,20.8484 8.04485,20.0657 5.9896,18.0104 C3.93435,15.9552 3.15161,13.1093 3.64139,10.4518 C3.233,9.72736 3,8.89089 3,8 C3,5.23858 5.23858,3.00001 8,3.00001 C8.89089,3.00001 9.72736,3.233 10.4518,3.64139 C13.1093,3.15161 15.9552,3.93435 18.0104,5.9896 L18.0104,5.9896 Z M12.0387,17.1638 C14.912,17.1638 16.3356,15.7788 16.3356,13.9242 C16.3356,12.7266 15.7833,11.4552 13.6058,10.9702 L11.6175,10.529 C10.862,10.3564 9.99089,10.129 9.99089,9.416 C9.99089,8.70164 10.6017,8.20253 11.7044,8.20253 C13.9256,8.20253 13.7227,9.72889 14.8257,9.72889 C15.4058,9.72889 15.9139,9.38789 15.9139,8.80105 C15.9139,7.43163 13.7227,6.40439 11.8639,6.40439 C9.84559,6.40439 7.69671,7.26127 7.69671,9.54376 C7.69671,10.6431 8.08922,11.8123 10.2526,12.3547 L12.9382,13.0256 C13.7511,13.2257 13.9546,13.6826 13.9546,14.0951 C13.9546,14.7814 13.2728,15.4514 12.0387,15.4514 C9.62788,15.4514 9.96221,13.596 8.67022,13.596 C8.08922,13.596 7.66803,13.9955 7.66803,14.5665 C7.66803,15.6795 9.01877,17.1638 12.0387,17.1638 L12.0387,17.1638 Z" id="skype" fill="#000"/>
    </g>
</svg>

<svg xmlns="http://www.w3.org/2000/svg" viewBox="0 0 24 24">
    <path fill-rule="evenodd" d="M18.01 5.99a8.49 8.49 0 0 1 2.349 7.558 5 5 0 0 1-6.81 6.81 8.49 8.49 0 0 1-7.56-2.348 8.49 8.49 0 0 1-2.348-7.558 5 5 0 0 1 6.81-6.81 8.49 8.49 0 0 1 7.56 2.348zm-5.97 11.174c2.873 0 4.297-1.385 4.297-3.24 0-1.197-.553-2.469-2.73-2.954l-1.989-.441c-.755-.173-1.626-.4-1.626-1.113 0-.714.61-1.213 1.713-1.213 2.222 0 2.019 1.526 3.122 1.526.58 0 1.088-.341 1.088-.928 0-1.37-2.191-2.397-4.05-2.397-2.018 0-4.167.857-4.167 3.14 0 1.1.392 2.268 2.556 2.81l2.685.672c.813.2 1.017.657 1.017 1.07 0 .685-.682 1.355-1.916 1.355-2.411 0-2.077-1.855-3.369-1.855-.58 0-1.002.4-1.002.97 0 1.114 1.35 2.598 4.37 2.598z"/>
</svg>
